X:1
T:"Jon's Polka"
C:traditionell
A:France
Z:abc transcription Simon Wascher
M:2/4
L:1/8
K:G
B/c/ |\
dg fg | e2 d2 | d/e/d/c/ B/c/d/e/ | (d2 d)B/c/ |
dg fg | e2 d2 | d/e/d/c/ BA | (G2 G) :|
|: G/A/ |\
BB BA/B/ | cc cd/e/ | d/e/d/c/ B/c/d/e/ | d/c/B/A/ BG/A/ |
BB BA/B/ | cc cd/e/ | d/e/d/c/ BA | (G2 G) :|
W:aus Simon Waschers TradArchiv
 
</pre>
</body>
</html>
v

